X: 6370
T: Cashmere Shawl, The
R: reel
M: 4/4
K: Adorian
A3B AGEG|AGAB c2Bc|A3B AGEG|gedB c2 Bc|
A3B AGEG|AGAB c2Bc|A3B AGEG|gedB c3d||
e3g edcd|egec d2cd|e3g edcd|efge d2cd|
e3g edcd|e3c d2cd|eaag eg g2|gedB c3d||
ecgc edcd|egec d2cd|ecgc edcd|eage d2cd|
ecgc edcd|egec d2 cd|ea a2 eg g2|gedB c2 Bc||

